src/components/00-materials/images-raw/Citycar.svg

<svg width="96" height="96" viewBox="0 0 96 96" fill="none" xmlns="http://www.w3.org/2000/svg">
<path d="M16.79 74C21.7605 74 25.79 69.9347 25.79 64.92C25.79 59.9052 21.7605 55.84 16.79 55.84C11.8194 55.84 7.78998 59.9052 7.78998 64.92C7.78998 69.9347 11.8194 74 16.79 74Z" stroke="#00008F" stroke-width="2" stroke-linecap="round" stroke-linejoin="round"/>
<path d="M16.79 69.0401C19.0433 69.0401 20.87 67.1955 20.87 64.92C20.87 62.6446 19.0433 60.8 16.79 60.8C14.5367 60.8 12.71 62.6446 12.71 64.92C12.71 67.1955 14.5367 69.0401 16.79 69.0401Z" stroke="#00008F" stroke-width="2" stroke-linecap="round" stroke-linejoin="round"/>
<path d="M77.5 74C82.4706 74 86.5 69.9347 86.5 64.92C86.5 59.9052 82.4706 55.84 77.5 55.84C72.5294 55.84 68.5 59.9052 68.5 64.92C68.5 69.9347 72.5294 74 77.5 74Z" stroke="#00008F" stroke-width="2" stroke-linecap="round" stroke-linejoin="round"/>
<path d="M77.5 69.0401C79.7533 69.0401 81.58 67.1955 81.58 64.92C81.58 62.6446 79.7533 60.8 77.5 60.8C75.2467 60.8 73.42 62.6446 73.42 64.92C73.42 67.1955 75.2467 69.0401 77.5 69.0401Z" stroke="#00008F" stroke-width="2" stroke-linecap="round" stroke-linejoin="round"/>
<path d="M35.86 56.25H64.43M31.4 65.99H68.5H31.4Z" stroke="#00008F" stroke-width="2" stroke-linecap="round" stroke-linejoin="round"/>
<path d="M77.5 74C82.4706 74 86.5 69.9347 86.5 64.92C86.5 59.9052 82.4706 55.84 77.5 55.84C72.5294 55.84 68.5 59.9052 68.5 64.92C68.5 69.9347 72.5294 74 77.5 74Z" stroke="#00008F" stroke-width="2" stroke-linecap="round" stroke-linejoin="round"/>
<path d="M7.3 66H5C4.48972 66.0009 3.99838 65.8067 3.62658 65.4572C3.25477 65.1077 3.03062 64.6293 3 64.12V54.72C3.00131 54.2188 3.10149 53.7228 3.29479 53.2604C3.4881 52.798 3.77074 52.3783 4.12652 52.0253C4.4823 51.6723 4.90423 51.393 5.36814 51.2033C5.83205 51.0136 6.32882 50.9173 6.83 50.92H16.08C27.22 50.92 31.23 59.41 31.23 66H26" stroke="#00008F" stroke-width="2" stroke-linecap="round" stroke-linejoin="round"/>
<path d="M6.57001 50.93C7.24001 47.52 9.97001 29.47 15.33 25.66C26 23.89 32.29 23 39.44 23C46.59 23 48.44 23.54 50.15 23.89C59.08 25.66 76 40.08 76 40.08C76 40.08 93 42 93 63.35C92.9947 64.0564 92.7097 64.7319 92.2074 65.2286C91.7051 65.7253 91.0264 66.0027 90.32 66H86.49" stroke="#00008F" stroke-width="2" stroke-linecap="round" stroke-linejoin="round"/>
<path d="M15.33 25.66V41.85H8.82001M89.13 49.55C88.1988 49.7402 87.2504 49.834 86.3 49.83C80.57 49.83 77.44 44.6 75.3 39.66M39.44 27.44V42.74M69.79 42.74H26C25.4196 42.7414 24.8445 42.6283 24.3078 42.4074C23.771 42.1865 23.283 41.862 22.8717 41.4525C22.4603 41.043 22.1336 40.5565 21.9103 40.0207C21.6869 39.485 21.5713 38.9105 21.57 38.33V29.21C21.57 29.21 32.3 27.88 39.43 27.44C53.72 26.55 69.79 42.74 69.79 42.74Z" stroke="#00008F" stroke-width="2" stroke-linecap="round" stroke-linejoin="round"/>
</svg>

<svg width="96" height="96" viewBox="0 0 96 96" fill="none" xmlns="http://www.w3.org/2000/svg"><path d="M16.79 74c4.97 0 9-4.065 9-9.08s-4.03-9.08-9-9.08-9 4.065-9 9.08 4.03 9.08 9 9.08z" stroke="#00008F" stroke-width="2" stroke-linecap="round" stroke-linejoin="round"/><path d="M16.79 69.04c2.253 0 4.08-1.845 4.08-4.12 0-2.275-1.827-4.12-4.08-4.12s-4.08 1.845-4.08 4.12c0 2.275 1.827 4.12 4.08 4.12zM77.5 74c4.97 0 9-4.065 9-9.08s-4.03-9.08-9-9.08-9 4.065-9 9.08 4.03 9.08 9 9.08z" stroke="#00008F" stroke-width="2" stroke-linecap="round" stroke-linejoin="round"/><path d="M77.5 69.04c2.253 0 4.08-1.845 4.08-4.12 0-2.275-1.827-4.12-4.08-4.12s-4.08 1.845-4.08 4.12c0 2.275 1.827 4.12 4.08 4.12zM35.86 56.25h28.57M31.4 65.99h37.1-37.1z" stroke="#00008F" stroke-width="2" stroke-linecap="round" stroke-linejoin="round"/><path d="M77.5 74c4.97 0 9-4.065 9-9.08s-4.03-9.08-9-9.08-9 4.065-9 9.08 4.03 9.08 9 9.08zM7.3 66H5a2 2 0 01-2-1.88v-9.4a3.81 3.81 0 013.83-3.8h9.25c11.14 0 15.15 8.49 15.15 15.08H26" stroke="#00008F" stroke-width="2" stroke-linecap="round" stroke-linejoin="round"/><path d="M6.57 50.93c.67-3.41 3.4-21.46 8.76-25.27C26 23.89 32.29 23 39.44 23c7.15 0 9 .54 10.71.89C59.08 25.66 76 40.08 76 40.08S93 42 93 63.35A2.67 2.67 0 0190.32 66h-3.83" stroke="#00008F" stroke-width="2" stroke-linecap="round" stroke-linejoin="round"/><path d="M15.33 25.66v16.19H8.82m80.31 7.7c-.931.19-1.88.284-2.83.28-5.73 0-8.86-5.23-11-10.17M39.44 27.44v15.3m30.35 0H26a4.418 4.418 0 01-4.43-4.41v-9.12s10.73-1.33 17.86-1.77c14.29-.89 30.36 15.3 30.36 15.3z" stroke="#00008F" stroke-width="2" stroke-linecap="round" stroke-linejoin="round"/></svg>
